!!!!SEGMENT: pl-sa--l-1636--060_anonim-preambulum-ficta-scala.krn
!!!id: 17xx:767
!!!COM: Anonim
!!!OTL: Preambulum Ficta Scala
!!!PDT:
!!!SMS-siglum: PL-SA
!!!SMS-shelfmark: L 1636
!!!NIFC-rismID: 1001076860
!!!URL-scan: http://repozytorium.nifc.pl/skany/pl-sa-nut--l1636
!!!ONB-nifc: 16v-17r, skan 0020, s. 1-6
!!!SMS-variant:
!!!SMS-altvar:
**kern	**kern
*part1	*part1
*staff2	*staff1
*I"Organo	*
*I'Org.	*
*clefF4	*clefC1
*k[f#c#g#]	*k[f#c#g#]
*M2/2	*M2/2
*met(c|)	*met(c|)
=1	=1
*^	*^
!LO:TX:a:t=Per ambulum Ficta Sala	!	!	!
!	!	!	!LO:SIC:o:s:=:v:all\right
2F#/	1D\ [1DD\	2a/ 2f#/	1d\
[2G#/	.	2b/ 2g#/	.
=2	=2	=2	=2
1G#/] 1D/	1DD\]	8b/	8g#\
.	.	8d/L	8ryy
.	.	8e/	4ryy
.	.	8f#/J	.
.	.	16g#/LL	2ryy
.	.	16f#/	.
.	.	16g#/	.
.	.	16a/JJ	.
.	.	16b\LL	.
.	.	16a\	.
.	.	16b\	.
.	.	16cc#\JJ	.
*	*	*v	*v
=3	=3	=3
1G#/ 1D/	1DD\	16dd\LL
.	.	16cc#\
.	.	16b\
.	.	16a\JJ
.	.	16b\LL
.	.	16a\
.	.	16g#\
.	.	16f#\JJ
.	.	8g#\L
.	.	16a\L
.	.	16b\JJ
.	.	8a\L
.	.	8g#\J
=4	=4	=4
[2F#/ 2D/	[2DD/	16a\LL
.	.	16b\
.	.	16g#\
.	.	16a\JJ
.	.	16f#/LL
.	.	16g#/
.	.	16e/
.	.	16f#/JJ
!!LO:LB:g=original
2F#/] 2D/	2DD/]	16d/LL
.	.	16e/
.	.	16f#/
.	.	16g#/JJ
.	.	16a\LL
.	.	16b\
.	.	16cc#\
.	.	16a\JJ
=5	=5	=5
[1G#/ 1D/	1GG#\	16b\LL
.	.	16cc#\
.	.	16dd\
.	.	16cc#\JJ
.	.	16b\LL
.	.	16a\
.	.	16g#\
.	.	16f#\JJ
.	.	16g#\LL
.	.	16a\
.	.	16b\
.	.	16a\JJ
.	.	16g#/LL
.	.	16f#/
.	.	16e/
.	.	16d/JJ
=6	=6	=6
4G#/]	1AA\	8c#/L
.	.	8A/J
4F#/	.	2d/
2E/	.	.
.	.	4c#/
=7	=7	=7
*	*2\right	*
4A/ 4F#/	2.D\	4d/
4F#/	.	4a\
4G#/	.	4b\
4A/	4C#\	4cc#\
=8	=8	=8
4A/	2BB\	8dd\L
.	.	16cc#\L
.	.	16dd\JJ
4G#/	.	8b\L
.	.	16cc#\L
.	.	16dd\JJ
8A/L	2AA\	8cc#\L
8E/	.	8b\
8A/	.	8cc#\
8G#/J	.	8a\J
!!LO:LB:g=original
=9	=9	=9
2A/ 2F#/	2D\	8a\L
.	.	16g#\L
.	.	16a\JJ
.	.	8f#/L
.	.	16g#/L
.	.	16a/JJ
2G#/	2E\	8g#/L
.	.	16f#/L
.	.	16g#/JJ
.	.	8e/L
.	.	16f#/L
.	.	16g#/JJ
=10	=10	=10
4A/	2D\	8f#/L
.	.	16e/L
.	.	16f#/JJ
[4B/	.	8d/L
.	.	16e/L
.	.	16f#/JJ
4B/]	2C#\	8e/L
.	.	16d/L
.	.	16e/JJ
4A/	.	8c#/L
.	.	16d/L
.	.	16e/JJ
=11	=11	=11
4A/	2BB\	8dd\L
.	.	16cc#\L
.	.	16dd\JJ
4G#X/	.	8b\L
.	.	16cc#\L
.	.	16dd\JJ
2A/ 2E/	2AA\	8cc#\L
.	.	16b\L
.	.	16cc#\JJ
.	.	8a\L
.	.	16b\L
.	.	16cc#\JJ
=12	=12	=12
4d/	2G#\	8b\L
.	.	16a\L
.	.	16b\JJ
4e/	.	8g#\L
.	.	16a\L
.	.	16b\JJ
*	*	*clefG2
!!LO:LB:g=original
4e/	2F#\	8gg#\L
.	.	16ff#\L
.	.	16gg#\JJ
4d/	.	8dd\L
.	.	16ee\L
.	.	16ff#\JJ
=13	=13	=13
4d/	2E\	8gg#\L
.	.	16ff#\L
.	.	16gg#\JJ
4c#/	.	8ee\L
.	.	16ff#\L
.	.	16gg#\JJ
2d/ 2A/	2D\	8ee\L
.	.	16dd\L
.	.	16ee\JJ
.	.	8dd\L
.	.	16ee\L
.	.	16ff#\JJ
=14	=14	=14
2A/	2C#\	8ee\L
.	.	16dd\L
.	.	16ee\JJ
.	.	8cc#\L
.	.	16dd\L
.	.	16ee\JJ
4A/	2BB\	8dd\L
.	.	16cc#\L
.	.	16dd\JJ
4G#X/	.	8b\L
.	.	16cc#\L
.	.	16dd\JJ
=15	=15	=15
*	*	*^
2A/ 2E/	2AA\	8cc#\L	2ryy
.	.	16b\L	.
.	.	16cc#\JJ	.
.	.	8a\L	.
.	.	16b\L	.
.	.	16cc#\JJ	.
4E\	2ryy	4b/	4g#X\
4C#/	.	4cc#/	4a\
=16	=16	=16	=16
4D/	2ryy	2b/	4a\
4E\	.	.	4g#X\
!!LO:PB:g=original
2AA\	2A/ 2E/	8a/L	2ryy
.	.	8e/J	.
.	.	16a/LL	.
.	.	16g#/	.
.	.	16f#/	.
.	.	16e/JJ	.
*v	*v	*	*
=17	=17	=17
8D/L	2f#/	2d\
8AA/J	.	.
16D/LL	.	.
16C#/	.	.
16BB/	.	.
16AA/JJ	.	.
2G#/ 2D/ 2GG#/	8g#/L	2ryy
.	8d/J	.
.	16g#/LL	.
.	16f#/	.
.	16e/	.
.	16d/JJ	.
=18	=18	=18
*^	*	*
8A\L	4ryy	2e/	2c#X\
8E\J	.	.	.
16A\LL	4ryy	.	.
16G#\	.	.	.
16F#\	.	.	.
16E\JJ	.	.	.
2A/ 2F#/	2D\	8dd\L	2ryy
.	.	8a\J	.
.	.	16dd\LL	.
.	.	16cc#\	.
.	.	16b\	.
.	.	16a\JJ	.
*v	*v	*	*
*	*v	*v
=19	=19
2G#/ 2D/ 2GG#/	8b\L
.	8f#\J
.	16b\LL
.	16a\
.	16g#\
.	16f#\JJ
8A\L	2e/ 2c#X/
8E\J	.
16A\LL	.
16G#\	.
16F#\	.
16E\JJ	.
=20	=20
*^	*
2A/ 2F#/	2D\	16d/LL
.	.	16e/
.	.	16f#/
.	.	16g#/JJ
.	.	16a/LL
.	.	16b/
.	.	16cc#/
.	.	16a/JJ
!!LO:LB:g=original
2A/ 2F#/	2D\	16b\LL
.	.	16cc#\
.	.	16dd\
.	.	16ee\JJ
.	.	16ff#\LL
.	.	16ee\
.	.	16ff#\
.	.	16dd\JJ
=21	=21	=21
*	*	*^
2A/	2AA\	2ee/	2cc#\
2F#\	2ryy	2ff#/	2dd\
=22	=22	=22	=22
*	*	*	*^
4.G#/	2GG#\	1ee/	4dd\	2ryy
.	.	.	8cc#\L	.
8F#/	.	.	8b\J	.
2E/	2AA\	.	4a\	2cc#/
.	.	.	4g#\	.
*v	*v	*	*	*
*	*	*v	*v
=23	=23	=23
1D/ 1AA/ 1FF#/ 1DD/	1dd/	1a\ 1f#\
*	*v	*v
=:|!	=:|!
*-	*-
!!!system-decoration: s1,s2
!!!ENC: Tomasz Grochalski
!!!END: 2020-06-12
!!!EED: Leszek Kubiak
!!!EST: 2020-12-08
